svgs/thin/raindrops.svg

<svg xmlns="http://www.w3.org/2000/svg" viewBox="0 0 448 512"><!-- Font Awesome Pro 6.0.0-alpha2 by @fontawesome - https://fontawesome.com License - https://fontawesome.com/license (Commercial License) --><path d="M64 224C58.855 224 53.711 226.643 50.557 231.93C31.787 263.402 0 320.643 0 347.359C0 385.268 28.654 416 64 416S128 385.268 128 347.359C128 320.643 96.215 263.402 77.443 231.93C74.291 226.643 69.146 224 64 224ZM64 400C37.533 400 16 376.385 16 347.359C16 331.01 33.867 291.256 64.02 240.658C94.072 291.117 112 330.979 112 347.359C112 376.385 90.467 400 64 400ZM224 155.359C224 128.643 192.215 71.402 173.443 39.93C170.291 34.643 165.146 32 160 32C154.855 32 149.711 34.643 146.557 39.93C127.787 71.402 96 128.643 96 155.359C96 193.268 124.654 224 160 224S224 193.268 224 155.359ZM160 208C133.533 208 112 184.385 112 155.359C112 139.01 129.867 99.256 160.02 48.658C190.072 99.117 208 138.979 208 155.359C208 184.385 186.467 208 160 208ZM334.596 135.506C331.137 130.502 325.568 128 320 128S308.863 130.502 305.406 135.506C271.836 184.074 192 305.162 192 358.262C192 425.494 249.309 480 320 480S448 425.494 448 358.262C448 305.162 368.164 184.074 334.596 135.506ZM320 464C258.244 464 208 416.564 208 358.262C208 325.146 250.367 243.277 318.568 144.602C318.93 144.078 319.621 144 320 144L321.434 144.602C389.633 243.277 432 325.146 432 358.262C432 416.564 381.758 464 320 464Z"/></svg>

<svg xmlns="http://www.w3.org/2000/svg" viewBox="0 0 448 512"><!--! Font Awesome Pro 6.0.0-alpha3 by @fontawesome - https://fontawesome.com License - https://fontawesome.com/license (Commercial License) --><path d="M64 224C58.86 224 53.71 226.6 50.56 231.9C31.79 263.4 0 320.6 0 347.4C0 385.3 28.65 416 64 416s64-30.73 64-68.64c0-26.72-31.79-83.96-50.56-115.4C74.29 226.6 69.15 224 64 224zM64 400c-26.47 0-48-23.62-48-52.64c0-16.35 17.87-56.1 48.02-106.7C94.07 291.1 112 330.1 112 347.4C112 376.4 90.47 400 64 400zM224 155.4c0-26.72-31.79-83.96-50.56-115.4C170.3 34.64 165.1 32 160 32C154.9 32 149.7 34.64 146.6 39.93C127.8 71.4 96 128.6 96 155.4C96 193.3 124.7 224 160 224S224 193.3 224 155.4zM160 208c-26.47 0-48-23.62-48-52.64c0-16.35 17.87-56.1 48.02-106.7C190.1 99.12 208 138.1 208 155.4C208 184.4 186.5 208 160 208zM334.6 135.5C331.1 130.5 325.6 128 320 128s-11.14 2.502-14.59 7.506C271.8 184.1 192 305.2 192 358.3C192 425.5 249.3 480 320 480s128-54.51 128-121.7C448 305.2 368.2 184.1 334.6 135.5zM320 464c-61.76 0-112-47.44-112-105.7c0-33.12 42.37-114.1 110.6-213.7C318.9 144.1 319.6 144 320 144l1.434 .6016C389.6 243.3 432 325.1 432 358.3C432 416.6 381.8 464 320 464z"/></svg>
